icons/Editor/rounded-corner.svg

<svg viewBox="0 0 24 24" xmlns="http://www.w3.org/2000/svg"><path d="M21 19V21H19V19H21ZM17 19V21H15V19H17ZM13 19V21H11V19H13ZM9 19V21H7V19H9ZM5 19V21H3V19H5ZM21 15V17H19V15H21ZM5 15V17H3V15H5ZM5 11V13H3V11H5ZM16 3C18.6874 3 20.8817 5.12366 20.9954 7.78322L21 8V13H19V8C19 6.40893 17.7447 5.09681 16.1756 5.00512L16 5H11V3H16ZM5 7V9H3V7H5ZM5 3V5H3V3H5ZM9 3V5H7V3H9Z"/></svg>

<svg xmlns="http://www.w3.org/2000/svg" viewBox="0 0 24 24">
    <g>
        <path fill="none" d="M0 0H24V24H0z"/>
        <path d="M21 19v2h-2v-2h2zm-4 0v2h-2v-2h2zm-4 0v2h-2v-2h2zm-4 0v2H7v-2h2zm-4 0v2H3v-2h2zm16-4v2h-2v-2h2zM5 15v2H3v-2h2zm0-4v2H3v-2h2zm11-8c2.687 0 4.882 2.124 4.995 4.783L21 8v5h-2V8c0-1.591-1.255-2.903-2.824-2.995L16 5h-5V3h5zM5 7v2H3V7h2zm0-4v2H3V3h2zm4 0v2H7V3h2z"/>
    </g>
</svg>
